en/_assets/tracker/svg/initial.svg

<svg width="63" height="20" viewBox="0 0 63 20" fill="none" xmlns="http://www.w3.org/2000/svg">
<g clip-path="url(#clip0_3479_35431)">
<path fill-rule="evenodd" clip-rule="evenodd" d="M11.1791 4.81388C11.4469 4.7718 11.7211 4.75 12 4.75C12.2789 4.75 12.5531 4.7718 12.8209 4.81388C13.1277 4.86211 13.3374 5.14999 13.2892 5.45689C13.241 5.76378 12.9531 5.97347 12.6462 5.92524C12.436 5.8922 12.2202 5.875 12 5.875C11.7798 5.875 11.564 5.8922 11.3538 5.92524C11.0469 5.97347 10.759 5.76378 10.7108 5.45689C10.6626 5.14999 10.8722 4.86211 11.1791 4.81388ZM9.6994 5.87644C9.88221 6.12762 9.82678 6.47944 9.5756 6.66224C9.22554 6.91701 8.91701 7.22554 8.66224 7.5756C8.47944 7.82678 8.12762 7.88221 7.87644 7.6994C7.62526 7.5166 7.56983 7.16478 7.75263 6.9136C8.07651 6.46859 8.46859 6.07651 8.9136 5.75263C9.16478 5.56983 9.5166 5.62526 9.6994 5.87644ZM14.3006 5.87644C14.4834 5.62526 14.8352 5.56983 15.0864 5.75263C15.5314 6.07651 15.9235 6.46859 16.2474 6.9136C16.4302 7.16478 16.3747 7.5166 16.1236 7.6994C15.8724 7.88221 15.5206 7.82678 15.3378 7.5756C15.083 7.22554 14.7745 6.91701 14.4244 6.66224C14.1732 6.47944 14.1178 6.12762 14.3006 5.87644ZM7.45689 8.71079C7.76378 8.75902 7.97347 9.0469 7.92524 9.3538C7.8922 9.56401 7.875 9.7798 7.875 10C7.875 10.2202 7.8922 10.436 7.92524 10.6462C7.97347 10.9531 7.76378 11.241 7.45689 11.2892C7.14999 11.3374 6.86211 11.1277 6.81388 10.8209C6.7718 10.5531 6.75 10.2789 6.75 10C6.75 9.72111 6.7718 9.44692 6.81388 9.17914C6.86211 8.87225 7.14999 8.66256 7.45689 8.71079ZM16.5431 8.71079C16.85 8.66256 17.1379 8.87225 17.1861 9.17914C17.2282 9.44692 17.25 9.72111 17.25 10C17.25 10.2789 17.2282 10.5531 17.1861 10.8209C17.1379 11.1277 16.85 11.3374 16.5431 11.2892C16.2362 11.241 16.0265 10.9531 16.0748 10.6462C16.1078 10.436 16.125 10.2202 16.125 10C16.125 9.7798 16.1078 9.56401 16.0748 9.3538C16.0265 9.0469 16.2362 8.75902 16.5431 8.71079ZM7.87644 12.3006C8.12762 12.1178 8.47944 12.1732 8.66224 12.4244C8.91701 12.7745 9.22554 13.083 9.5756 13.3378C9.82678 13.5206 9.88221 13.8724 9.6994 14.1236C9.5166 14.3747 9.16478 14.4302 8.9136 14.2474C8.46859 13.9235 8.07651 13.5314 7.75263 13.0864C7.56983 12.8352 7.62526 12.4834 7.87644 12.3006ZM16.1236 12.3006C16.3747 12.4834 16.4302 12.8352 16.2474 13.0864C15.9235 13.5314 15.5314 13.9235 15.0864 14.2474C14.8352 14.4302 14.4834 14.3747 14.3006 14.1236C14.1178 13.8724 14.1732 13.5206 14.4244 13.3378C14.7745 13.083 15.083 12.7745 15.3378 12.4244C15.5206 12.1732 15.8724 12.1178 16.1236 12.3006ZM10.7108 14.5431C10.759 14.2362 11.0469 14.0265 11.3538 14.0748C11.564 14.1078 11.7798 14.125 12 14.125C12.2202 14.125 12.436 14.1078 12.6462 14.0748C12.9531 14.0265 13.241 14.2362 13.2892 14.5431C13.3374 14.85 13.1277 15.1379 12.8209 15.1861C12.5531 15.2282 12.2789 15.25 12 15.25C11.7211 15.25 11.4469 15.2282 11.1791 15.1861C10.8722 15.1379 10.6626 14.85 10.7108 14.5431Z" fill="#657B8F"/>
</g>
<path d="M25.314 4.679V14H24.092V4.679H25.314ZM30.5236 8.137C30.0036 8.137 29.579 8.25833 29.2496 8.501C28.929 8.735 28.669 9.03833 28.4696 9.411V14H27.3256V7.253H28.4046L28.4436 8.462H28.4696C28.6516 8.072 28.9376 7.75133 29.3276 7.5C29.7176 7.24867 30.2116 7.123 30.8096 7.123C31.477 7.123 32.0056 7.30067 32.3956 7.656C32.7943 8.00267 32.9936 8.54 32.9936 9.268V14H31.8496V9.385C31.8496 8.917 31.7326 8.592 31.4986 8.41C31.2646 8.228 30.9396 8.137 30.5236 8.137ZM35.3882 6.265C35.1542 6.265 34.9679 6.19567 34.8292 6.057C34.6905 5.90967 34.6212 5.732 34.6212 5.524C34.6212 5.316 34.6905 5.13833 34.8292 4.991C34.9679 4.84367 35.1542 4.77 35.3882 4.77C35.6135 4.77 35.7912 4.84367 35.9212 4.991C36.0512 5.13833 36.1162 5.316 36.1162 5.524C36.1162 5.732 36.0512 5.90967 35.9212 6.057C35.7912 6.19567 35.6135 6.265 35.3882 6.265ZM35.9472 7.253V14H34.8032V7.253H35.9472ZM41.114 13.857C40.9753 13.935 40.7976 14 40.581 14.052C40.3643 14.104 40.1346 14.13 39.892 14.13C39.5626 14.13 39.281 14.0823 39.047 13.987C38.8216 13.8917 38.6353 13.766 38.488 13.61C38.3406 13.4453 38.2323 13.2633 38.163 13.064C38.1023 12.856 38.072 12.6437 38.072 12.427V8.228H37.266V7.253H38.072V5.836H39.216V7.253H41.179V8.228H39.216V12.284C39.216 12.57 39.2853 12.778 39.424 12.908C39.5713 13.038 39.827 13.103 40.191 13.103C40.529 13.103 40.8366 13.0077 41.114 12.817V13.857ZM43.2212 6.265C42.9872 6.265 42.8009 6.19567 42.6622 6.057C42.5235 5.90967 42.4542 5.732 42.4542 5.524C42.4542 5.316 42.5235 5.13833 42.6622 4.991C42.8009 4.84367 42.9872 4.77 43.2212 4.77C43.4465 4.77 43.6242 4.84367 43.7542 4.991C43.8842 5.13833 43.9492 5.316 43.9492 5.524C43.9492 5.732 43.8842 5.90967 43.7542 6.057C43.6242 6.19567 43.4465 6.265 43.2212 6.265ZM43.7802 7.253V14H42.6362V7.253H43.7802ZM49.597 12.713C49.519 12.869 49.4193 13.0337 49.298 13.207C49.1767 13.3717 49.025 13.5233 48.843 13.662C48.661 13.8007 48.4443 13.9133 48.193 14C47.9503 14.0867 47.6643 14.13 47.335 14.13C46.7283 14.13 46.2387 13.961 45.866 13.623C45.4933 13.2763 45.307 12.7823 45.307 12.141C45.307 11.4043 45.5627 10.8627 46.074 10.516C46.594 10.1693 47.3307 9.996 48.284 9.996H49.545V9.437C49.545 8.969 49.4237 8.63533 49.181 8.436C48.9383 8.23667 48.5223 8.137 47.933 8.137C47.517 8.137 47.1227 8.20633 46.75 8.345C46.3773 8.475 46.0437 8.62667 45.749 8.8V7.773C45.9917 7.62567 46.3167 7.48267 46.724 7.344C47.14 7.19667 47.595 7.123 48.089 7.123C48.9383 7.123 49.584 7.30067 50.026 7.656C50.468 8.00267 50.689 8.54433 50.689 9.281V12.908C50.689 12.986 50.689 13.077 50.689 13.181C50.6977 13.2763 50.702 13.376 50.702 13.48C50.7107 13.584 50.7193 13.6837 50.728 13.779C50.7367 13.8657 50.7453 13.9393 50.754 14H49.714C49.688 13.8787 49.662 13.7097 49.636 13.493C49.6187 13.2677 49.61 13.0727 49.61 12.908L49.597 12.713ZM47.582 13.103C47.9373 13.103 48.2407 13.0293 48.492 12.882C48.7433 12.7347 48.947 12.5657 49.103 12.375C49.259 12.1757 49.3717 11.985 49.441 11.803C49.5103 11.6123 49.545 11.478 49.545 11.4V10.906H48.401C47.7163 10.906 47.218 11.0057 46.906 11.205C46.6027 11.3957 46.451 11.686 46.451 12.076C46.451 12.3793 46.542 12.6263 46.724 12.817C46.906 13.0077 47.192 13.103 47.582 13.103ZM53.6318 4.679V14H52.4878V4.679H53.6318Z" fill="#586A7A"/>
<defs>
<clipPath id="clip0_3479_35431">
<rect width="12" height="12" fill="white" transform="translate(6 4)"/>
</clipPath>
</defs>
</svg>

<svg xmlns="http://www.w3.org/2000/svg" width="63" height="20" fill="none" viewBox="0 0 63 20">
    <g clip-path="url(#clip0_3479_35431)">
        <path fill="#657B8F" fill-rule="evenodd" d="M11.18 4.814a5.286 5.286 0 0 1 1.64 0 .563.563 0 0 1-.174 1.111 4.16 4.16 0 0 0-1.292 0 .562.562 0 0 1-.175-1.111ZM9.7 5.876a.562.562 0 0 1-.124.786 4.17 4.17 0 0 0-.914.914.562.562 0 1 1-.91-.662 5.278 5.278 0 0 1 1.162-1.161.563.563 0 0 1 .785.123Zm4.6 0a.563.563 0 0 1 .786-.123c.445.324.838.716 1.161 1.16a.563.563 0 0 1-.91.663 4.152 4.152 0 0 0-.913-.914.562.562 0 0 1-.123-.786ZM7.458 8.711a.562.562 0 0 1 .468.643 4.16 4.16 0 0 0 0 1.292.562.562 0 0 1-1.111.175 5.286 5.286 0 0 1 0-1.642.562.562 0 0 1 .643-.468Zm9.086 0a.562.562 0 0 1 .643.468 5.283 5.283 0 0 1 0 1.642.563.563 0 0 1-1.111-.175 4.164 4.164 0 0 0 0-1.292.562.562 0 0 1 .468-.643ZM7.876 12.3a.562.562 0 0 1 .786.123c.255.35.564.659.914.914a.562.562 0 1 1-.662.91 5.278 5.278 0 0 1-1.161-1.162.563.563 0 0 1 .123-.785Zm8.248 0a.563.563 0 0 1 .123.785 5.28 5.28 0 0 1-1.16 1.161.563.563 0 0 1-.663-.91c.35-.254.659-.563.914-.913a.562.562 0 0 1 .786-.123Zm-5.413 2.242a.562.562 0 0 1 .643-.468 4.164 4.164 0 0 0 1.292 0 .562.562 0 1 1 .175 1.111 5.284 5.284 0 0 1-1.642 0 .562.562 0 0 1-.468-.643Z" clip-rule="evenodd"/>
    </g>
    <path fill="#586A7A" d="M25.314 4.679V14h-1.222V4.679h1.222Zm5.21 3.458c-.52 0-.945.121-1.274.364a2.66 2.66 0 0 0-.78.91V14h-1.144V7.253h1.079l.039 1.209h.026c.182-.39.468-.71.858-.962.39-.251.884-.377 1.482-.377.667 0 1.196.178 1.586.533.398.347.598.884.598 1.612V14H31.85V9.385c0-.468-.117-.793-.351-.975-.234-.182-.56-.273-.975-.273Zm4.864-1.872c-.234 0-.42-.07-.559-.208a.75.75 0 0 1-.208-.533.75.75 0 0 1 .208-.533c.139-.147.325-.221.56-.221.224 0 .402.074.532.221.13.147.195.325.195.533a.778.778 0 0 1-.195.533c-.13.139-.307.208-.533.208Zm.56.988V14h-1.145V7.253h1.144Zm5.166 6.604a2.092 2.092 0 0 1-.533.195 2.945 2.945 0 0 1-.689.078c-.33 0-.611-.048-.845-.143a1.628 1.628 0 0 1-.559-.377 1.603 1.603 0 0 1-.325-.546 2.262 2.262 0 0 1-.091-.637V8.228h-.806v-.975h.806V5.836h1.144v1.417h1.963v.975h-1.963v4.056c0 .286.07.494.208.624.147.13.403.195.767.195.338 0 .646-.095.923-.286v1.04Zm2.107-7.592c-.234 0-.42-.07-.559-.208a.75.75 0 0 1-.208-.533.75.75 0 0 1 .208-.533c.139-.147.325-.221.56-.221.224 0 .402.074.532.221.13.147.195.325.195.533a.778.778 0 0 1-.195.533c-.13.139-.307.208-.533.208Zm.56.988V14h-1.145V7.253h1.144Zm5.816 5.46c-.078.156-.178.32-.299.494a2.26 2.26 0 0 1-1.105.793c-.243.087-.529.13-.858.13-.607 0-1.096-.169-1.469-.507-.373-.347-.559-.84-.559-1.482 0-.737.256-1.278.767-1.625.52-.347 1.257-.52 2.21-.52h1.261v-.559c0-.468-.121-.802-.364-1.001-.243-.2-.659-.299-1.248-.299-.416 0-.81.07-1.183.208-.373.13-.706.282-1.001.455V7.773c.243-.147.568-.29.975-.429a4.063 4.063 0 0 1 1.365-.221c.85 0 1.495.178 1.937.533.442.347.663.888.663 1.625v3.9c.009.095.013.195.013.299l.026.299c.009.087.017.16.026.221h-1.04a5.934 5.934 0 0 1-.078-.507 7.787 7.787 0 0 1-.026-.585l-.013-.195Zm-2.015.39c.355 0 .659-.074.91-.221.251-.147.455-.316.611-.507.156-.2.269-.39.338-.572.07-.19.104-.325.104-.403v-.494h-1.144c-.685 0-1.183.1-1.495.299-.303.19-.455.481-.455.871 0 .303.091.55.273.741.182.19.468.286.858.286Zm6.05-8.424V14h-1.144V4.679h1.144Z"/>
    <defs>
        <clipPath id="clip0_3479_35431">
            <path fill="#fff" d="M6 4h12v12H6z"/>
        </clipPath>
    </defs>
</svg>
